outputs/icons/general/store_round.svg

<svg xmlns="http://www.w3.org/2000/svg" width="1200" height="1200" fill="none"><path fill="#000" d="M1050 212.5c0-6.904-5.595-12.5-12.5-12.5h-775c-6.904 0-12.5 5.596-12.5 12.5v75c0 6.904 5.596 12.5 12.5 12.5h775c6.905 0 12.5-5.596 12.5-12.5zm37.5 487.5c6.905 0 12.5-5.595 12.5-12.5V600l-47.99-239.952A12.5 12.5 0 0 0 1039.75 350H260.248a12.5 12.5 0 0 0-12.258 10.048L200 600v87.5c0 6.905 5.596 12.5 12.5 12.5H250v287.5c0 6.905 5.596 12.5 12.5 12.5h475c6.905 0 12.5-5.595 12.5-12.5V700h200v287.5c0 6.905 5.595 12.5 12.5 12.5h75c6.905 0 12.5-5.595 12.5-12.5V700zM650 900H350V700h300z"/></svg>

<svg width="1200" height="1200" viewBox="0 0 1200 1200" fill="none" xmlns="http://www.w3.org/2000/svg"><path d="M1050 212.5C1050 205.596 1044.405 200 1037.5 200H262.5C255.596 200 250 205.596 250 212.5V287.5C250 294.404 255.596 300 262.5 300H1037.5C1044.405 300 1050 294.404 1050 287.5V212.5ZM1087.5 700C1094.405 700 1100 694.405 1100 687.5V600L1052.01 360.048C1050.84 354.206 1045.71 350 1039.75 350H260.248C254.289 350 249.159 354.206 247.99 360.048L200 600V687.5C200 694.405 205.596 700 212.5 700H250V987.5C250 994.405 255.596 1000 262.5 1000H737.5C744.405 1000 750 994.405 750 987.5V700H950V987.5C950 994.405 955.595 1000 962.5 1000H1037.5C1044.405 1000 1050 994.405 1050 987.5V700H1087.5ZM650 900H350V700H650V900Z" fill="#1D1E23"/></svg>
